epam-assets/icon-sources/18/action-target.svg

<svg width="18" height="18" viewBox="0 0 18 18" fill="none" xmlns="http://www.w3.org/2000/svg">
<g id="18/action-target">
<path id="icon" fill-rule="evenodd" clip-rule="evenodd" d="M9 6C7.3425 6 6 7.3425 6 9C6 10.6575 7.3425 12 9 12C10.6575 12 12 10.6575 12 9C12 7.3425 10.6575 6 9 6ZM15.705 8.25C15.36 5.1225 12.8775 2.64 9.75 2.295V0.75H8.25V2.295C5.1225 2.64 2.64 5.1225 2.295 8.25H0.75V9.75H2.295C2.64 12.8775 5.1225 15.36 8.25 15.705V17.25H9.75V15.705C12.8775 15.36 15.36 12.8775 15.705 9.75H17.25V8.25H15.705ZM9 14.25C6.0975 14.25 3.75 11.9025 3.75 9C3.75 6.0975 6.0975 3.75 9 3.75C11.9025 3.75 14.25 6.0975 14.25 9C14.25 11.9025 11.9025 14.25 9 14.25Z" fill="#6C6F80"/>
</g>
</svg>

<svg xmlns="http://www.w3.org/2000/svg" width="18" height="18" fill="none" viewBox="0 0 18 18">
  <path fill="#6C6F80" fill-rule="evenodd" d="M9 6a3 3 0 1 0 0 6 3 3 0 1 0 0-6Zm6.705 2.25A6.746 6.746 0 0 0 9.75 2.295V.75h-1.5v1.545A6.746 6.746 0 0 0 2.295 8.25H.75v1.5h1.545a6.746 6.746 0 0 0 5.955 5.955v1.545h1.5v-1.545a6.746 6.746 0 0 0 5.955-5.955h1.545v-1.5h-1.545ZM9 14.25A5.246 5.246 0 0 1 3.75 9 5.246 5.246 0 0 1 9 3.75 5.246 5.246 0 0 1 14.25 9 5.246 5.246 0 0 1 9 14.25Z" clip-rule="evenodd"/>
</svg>
